public/icons/shoelace.svg

<?xml version="1.0" encoding="UTF-8" standalone="no"?>
<svg
   width="425"
   height="425"
   viewBox="0 0 425 425"
   fill="none"
   version="1.1"
   id="svg4"
   sodipodi:docname="shoelace.svg"
   inkscape:export-filename="shoelace.png"
   inkscape:export-xdpi="115.65176"
   inkscape:export-ydpi="115.65176"
   inkscape:version="1.3 (0e150ed6c4, 2023-07-21)"
   xmlns:inkscape="http://www.inkscape.org/namespaces/inkscape"
   xmlns:sodipodi="http://sodipodi.sourceforge.net/DTD/sodipodi-0.dtd"
   xmlns="http://www.w3.org/2000/svg"
   xmlns:svg="http://www.w3.org/2000/svg">
  <defs
     id="defs4" />
  <sodipodi:namedview
     id="namedview4"
     pagecolor="#ffffff"
     bordercolor="#666666"
     borderopacity="1.0"
     inkscape:showpageshadow="2"
     inkscape:pageopacity="0.0"
     inkscape:pagecheckerboard="0"
     inkscape:deskcolor="#d1d1d1"
     inkscape:zoom="0.66687189"
     inkscape:cx="132.70915"
     inkscape:cy="83.22438"
     inkscape:window-width="1920"
     inkscape:window-height="1017"
     inkscape:window-x="-8"
     inkscape:window-y="-8"
     inkscape:window-maximized="1"
     inkscape:current-layer="svg4" />
  <g
     id="g4"
     transform="matrix(0.84714705,0,0,0.84714705,55.815998,37.973309)">
    <path
       fill-rule="evenodd"
       clip-rule="evenodd"
       d="m 213.224,1.01236 c -0.055,-0.016402 -0.109,-0.03281 -0.164,-0.049225 -8.129,-1.28418 -16.129,-1.28418 -24,0 -0.023,0.013778 -0.046,0.027516 -0.07,0.041215 -10.571,0.50753 -20.484,3.14331 -29.737,7.90754 -0.065,0.01708 -0.129,0.03416 -0.193,0.05124 -14.581,6.39647 -27.081,15.72947 -37.5,27.99997 -5.223,7.1133 -9.389,14.7803 -12.5,23 -0.017,0.0792 -0.034,0.1584 -0.05,0.2375 -6.15,17.1147 -6.471,34.3449 -0.962,51.6914 0.004,0.024 0.008,0.048 0.012,0.071 0.522,3.068 1.355,6.068 2.5,9 12.096,24.967 31.263,41.967 57.5,51 11.933,5.15 24.267,9.65 37,13.5 17.677,7.185 32.677,18.018 45,32.5 11.92,14.645 18.087,30.978 18.5,49 -10.133,-3.125 -19.633,-7.625 -28.5,-13.5 -22.07,-15.068 -44.403,-29.735 -67,-44 -14.808,-8.77 -30.808,-14.27 -48,-16.5 -0.125,-0.002 -0.249,-0.004 -0.373,-0.006 -10.365,-1.12 -20.9,-1.271 -31.605,-0.457 -9.0416,0.936 -17.6584,3.082 -25.8495,6.438 -0.0575,0.009 -0.1151,0.017 -0.1727,0.025 -7.0083,2.336 -13.6753,5.503 -20,9.5 -22.5503,17.092 -36.8833,39.592 -42.99996,67.5 4.9e-4,0.038 9.5e-4,0.076 0.00137,0.113 C 0.3287,289.675 -0.831023,303.65 0.582138,318 c 0.189157,2.188 0.681792,4.171 1.477912,5.951 -7e-5,0.004 -1.4e-4,0.008 -2.1e-4,0.012 -0.08447,1.059 -0.07959,2.11 0.01514,3.155 0.08642,0.955 0.24804,1.903 0.48486,2.845 12.09666,36.596 36.59666,60.596 73.49996,72 10.3477,2.027 20.6807,4.193 31.0002,6.5 0.313,0.216 0.555,0.469 0.727,0.759 -0.17,-0.275 -0.405,-0.515 -0.705,-0.722 -10.319,-2.306 -20.652,-4.473 -31,-6.5 10.17,4.209 20.837,6.876 32,8 -0.002,-0.012 -0.004,-0.025 -0.007,-0.037 h 4.985 c 13.65,0.812 27.317,1.145 41,1 18.539,-1.006 36.539,-4.839 54,-11.5 48.573,-18.978 77.406,-54.145 86.5,-105.5 8.246,-1.533 16.079,-4.366 23.5,-8.5 5.491,-4.246 11.158,-8.246 17,-12 2.618,-2.106 4.618,-4.606 6,-7.5 1.568,-2.31 2.402,-4.977 2.5,-8 l 26,-24 c 1.187,-4.658 -0.647,-7.325 -5.5,-8 -0.916,0.043 -1.583,0.376 -2,1 -7.26,4.923 -13.926,10.59 -20,17 6.061,-3.882 11.727,-8.382 17,-13.5 0.667,-0.667 1.333,-0.667 2,0 l -3,3 c 2.068,-0.016 3.734,-1.016 5,-3 0.948,-0.483 1.948,-0.649 3,-0.5 1.282,1.208 1.282,2.542 0,4 -7.482,6.315 -14.815,12.815 -22,19.5 -0.49,0.214 -0.964,0.296 -1.422,0.246 -0.548,-0.059 -1.075,-0.308 -1.578,-0.746 -1.125,-1.152 -1.125,-2.152 0,-3 5.61,-4.271 10.943,-8.937 16,-14 -0.502,-1.02 -1.168,-1.187 -2,-0.5 -4.177,4.568 -8.843,8.401 -14,11.5 v -2 c -2.386,0.873 -4.386,2.373 -6,4.5 -4.451,0.13 -8.784,0.796 -13,2 -7.854,6.762 -16.521,12.262 -26,16.5 -1.996,-8.628 -3.829,-17.295 -5.5,-26 -1.038,-3.969 -2.538,-7.636 -4.5,-11 -6.975,-17.098 -17.309,-31.931 -31,-44.5 -19.26,-15.374 -40.927,-26.207 -65,-32.5 -11.228,-3.444 -21.895,-8.277 -32,-14.5 -31.274,-23.265 -37.107,-51.7655 -17.5,-85.4999 19.458,-22.9316 44.291,-32.2646 74.5,-28 3.022,0.3047 6.022,0.8047 9,1.5 1.229,0.3213 2.137,0.9744 2.724,1.9583 -0.588,-0.9639 -1.488,-1.6043 -2.702,-1.9214 -2.978,-0.696 -5.978,-1.196 -9,-1.5 3.803,1.6249 7.803,2.9582 12,4 -0.005,-0.0112 -0.01,-0.0224 -0.015,-0.0336 21.058,9.1255 30.556,25.1245 28.493,47.9967 -3.028,12.1973 -9.195,22.5309 -18.5,30.9999 0.003,0.026 0.007,0.051 0.01,0.077 -0.812,2.794 -1.308,5.78 -1.488,8.96 -2.372,2.203 -4.539,4.537 -6.5,7 0,0.238 0.042,0.433 0.127,0.586 -0.1,-0.157 -0.149,-0.365 -0.149,-0.623 -7.298,5.631 -13.965,11.964 -20,19 -1.165,0.996 -1.832,2.329 -2,4 3.022,7.09 7.02,7.758 11.993,2.008 l 0.029,0.029 c 0.667,0 1,-0.333 1,-1 -0.007,-0.013 -0.013,-0.026 -0.02,-0.039 6.953,-5.288 13.277,-11.277 18.972,-17.967 0.016,0.002 0.032,0.004 0.048,0.006 1.51,-1.336 3.177,-2.503 5,-3.5 3.633,-0.149 6.966,-0.982 10,-2.5 -0.207,-0.103 -0.416,-0.215 -0.625,-0.334 0.202,0.099 0.402,0.197 0.603,0.297 11.404,-7.078 19.071,-17.078 23,-29.9999 0.051,-4.6865 1.051,-9.0205 3,-13 v -3 c -0.188,-9.7519 -1.188,-19.4189 -3,-29 C 270.529,28.4322 256.529,14.0983 235.061,6.96343 234.213,5.51984 232.887,4.69873 231.082,4.5 225.236,2.70691 219.283,1.54434 213.224,1.01236 Z M 233.147,131.965 c -0.022,0.011 -0.043,0.023 -0.065,0.035 -5.368,4.37 -10.015,9.343 -13.942,14.917 5.826,-3.339 10.966,-7.658 15.42,-12.954 0.517,-1.29 0.047,-1.956 -1.413,-1.998 z m -16.084,16.037 c -2.457,0.268 -4.784,0.934 -6.979,1.997 1.635,2.408 3.627,2.563 5.976,0.464 0.742,-0.662 1.077,-1.482 1.003,-2.461 z m -6.993,1.976 c -0.003,-0.005 -0.007,-0.01 -0.01,-0.015 -0.961,-1.765 -1.295,-3.765 -1,-6 h 2 l 18.962,-17.964 c 0.02,0.001 0.04,0.001 0.06,0.001 1.385,-1.114 2.885,-2.114 4.5,-3 -6.306,7.639 -13.472,14.806 -21.5,21.5 -0.937,0.692 -1.603,0.525 -2,-0.5 h -2 c -0.294,2.226 0.036,4.219 0.988,5.978 z M 186.981,5.49036 c 0.026,-0.00902 0.052,-0.01809 0.079,-0.02723 -2.053,-0.18918 -4.03,-0.67984 -5.933,-1.47198 -0.015,0.00296 -0.03,0.00591 -0.045,0.00885 1.892,0.79464 3.858,1.29143 5.899,1.49036 z M 101.657,216.919 c -0.199,0.014 -0.398,0.029 -0.597,0.044 -35.3639,3.857 -59.1969,22.522 -71.5002,56 -8.1484,26.286 -5.4819,51.286 8,75 18.6734,20.466 41.8404,32.632 69.5002,36.5 17.304,1.341 34.637,1.841 52,1.5 7.835,-1.528 15.835,-2.861 24,-4 6.198,-2.234 12.532,-4.4 19,-6.5 37.349,-15.843 59.682,-43.676 67,-83.5 -13.864,-2.93 -26.864,-8.096 -39,-15.5 -18.344,-11.504 -36.344,-23.504 -54,-36 -11.304,-7.486 -23.301,-13.651 -35.993,-18.497 0.005,0.011 0.01,0.022 0.015,0.034 -12.628,-4.35 -25.628,-6.017 -39,-5 0.192,-0.028 0.383,-0.054 0.575,-0.081 z"
       fill="#439efc"
       id="path1" />
    <path
       d="m 277.082,50 c 3.775,9.413 4.775,19.079 3,29 -0.188,-9.752 -1.188,-19.419 -3,-29 z"
       fill="#439efc"
       id="path2" />
    <path
       d="m 154.082,411 c -13.683,0.145 -27.35,-0.188 -41,-1 7.774,1.531 15.774,2.198 24,2 5.843,-10e-4 11.51,-0.334 17,-1 z"
       fill="#439efc"
       id="path3" />
    <path
       d="m 280.082,82 c 0.075,4.692 -0.925,9.026 -3,13 0.051,-4.687 1.051,-9.021 3,-13 z"
       fill="#439efc"
       id="path4" />
  </g>
</svg>

<svg width="370" height="413" viewBox="0 0 370 413" fill="none" xmlns="http://www.w3.org/2000/svg">
<path fill-rule="evenodd" clip-rule="evenodd" d="M213.224 1.01236C213.169 0.995958 213.115 0.97955 213.06 0.963135C204.931 -0.321045 196.931 -0.321045 189.06 0.963135C189.037 0.976913 189.014 0.990651 188.99 1.00435C178.419 1.51188 168.506 4.14766 159.253 8.91189C159.188 8.92897 159.124 8.94605 159.06 8.96313C144.479 15.3596 131.979 24.6926 121.56 36.9631C116.337 44.0764 112.171 51.7434 109.06 59.9631C109.043 60.0423 109.026 60.1215 109.01 60.2006C102.86 77.3153 102.539 94.5455 108.048 111.892C108.052 111.916 108.056 111.94 108.06 111.963C108.582 115.031 109.415 118.031 110.56 120.963C122.656 145.93 141.823 162.93 168.06 171.963C179.993 177.113 192.327 181.613 205.06 185.463C222.737 192.648 237.737 203.481 250.06 217.963C261.98 232.608 268.147 248.941 268.56 266.963C258.427 263.838 248.927 259.338 240.06 253.463C217.99 238.395 195.657 223.728 173.06 209.463C158.252 200.693 142.252 195.193 125.06 192.963C124.935 192.961 124.811 192.959 124.687 192.957C114.322 191.837 103.787 191.686 93.082 192.5C84.0404 193.436 75.4236 195.582 67.2325 198.938C67.175 198.947 67.1174 198.955 67.0598 198.963C60.0515 201.299 53.3845 204.466 47.0598 208.463C24.5095 225.555 10.1765 248.055 4.05984 275.963C4.06033 276.001 4.06079 276.039 4.06121 276.076C0.3287 289.675 -0.831023 303.65 0.582138 318C0.771295 320.188 1.26393 322.171 2.06005 323.951C2.05998 323.955 2.05991 323.959 2.05984 323.963C1.97537 325.022 1.98025 326.073 2.07498 327.118C2.1614 328.073 2.32302 329.021 2.55984 329.963C14.6565 366.559 39.1565 390.559 76.0598 401.963C86.4075 403.99 96.7405 406.156 107.06 408.463C107.373 408.679 107.615 408.932 107.787 409.222C107.617 408.947 107.382 408.707 107.082 408.5C96.763 406.194 86.43 404.027 76.082 402C86.252 406.209 96.919 408.876 108.082 410C108.08 409.988 108.078 409.975 108.075 409.963H113.06C126.71 410.775 140.377 411.108 154.06 410.963C172.599 409.957 190.599 406.124 208.06 399.463C256.633 380.485 285.466 345.318 294.56 293.963C302.806 292.43 310.639 289.597 318.06 285.463C323.551 281.217 329.218 277.217 335.06 273.463C337.678 271.357 339.678 268.857 341.06 265.963C342.628 263.653 343.462 260.986 343.56 257.963L369.56 233.963C370.747 229.305 368.913 226.638 364.06 225.963C363.144 226.006 362.477 226.339 362.06 226.963C354.8 231.886 348.134 237.553 342.06 243.963C348.121 240.081 353.787 235.581 359.06 230.463C359.727 229.796 360.393 229.796 361.06 230.463L358.06 233.463C360.128 233.447 361.794 232.447 363.06 230.463C364.008 229.98 365.008 229.814 366.06 229.963C367.342 231.171 367.342 232.505 366.06 233.963C358.578 240.278 351.245 246.778 344.06 253.463C343.57 253.677 343.096 253.759 342.638 253.709C342.09 253.65 341.563 253.401 341.06 252.963C339.935 251.811 339.935 250.811 341.06 249.963C346.67 245.692 352.003 241.026 357.06 235.963C356.558 234.943 355.892 234.776 355.06 235.463C350.883 240.031 346.217 243.864 341.06 246.963V244.963C338.674 245.836 336.674 247.336 335.06 249.463C330.609 249.593 326.276 250.259 322.06 251.463C314.206 258.225 305.539 263.725 296.06 267.963C294.064 259.335 292.231 250.668 290.56 241.963C289.522 237.994 288.022 234.327 286.06 230.963C279.085 213.865 268.751 199.032 255.06 186.463C235.8 171.089 214.133 160.256 190.06 153.963C178.832 150.519 168.165 145.686 158.06 139.463C126.786 116.198 120.953 87.6975 140.56 53.9631C160.018 31.0315 184.851 21.6985 215.06 25.9631C218.082 26.2678 221.082 26.7678 224.06 27.4631C225.289 27.7844 226.197 28.4375 226.784 29.4214C226.196 28.4575 225.296 27.8171 224.082 27.5C221.104 26.804 218.104 26.304 215.082 26C218.885 27.6249 222.885 28.9582 227.082 30C227.077 29.9888 227.072 29.9776 227.067 29.9664C248.125 39.0919 257.623 55.0909 255.56 77.9631C252.532 90.1604 246.365 100.494 237.06 108.963C237.063 108.989 237.067 109.014 237.07 109.04C236.258 111.834 235.762 114.82 235.582 118C233.21 120.203 231.043 122.537 229.082 125C229.082 125.238 229.124 125.433 229.209 125.586C229.109 125.429 229.06 125.221 229.06 124.963C221.762 130.594 215.095 136.927 209.06 143.963C207.895 144.959 207.228 146.292 207.06 147.963C210.082 155.053 214.08 155.721 219.053 149.971L219.082 150C219.749 150 220.082 149.667 220.082 149C220.075 148.987 220.069 148.974 220.062 148.961C227.015 143.673 233.339 137.684 239.034 130.994C239.05 130.996 239.066 130.998 239.082 131C240.592 129.664 242.259 128.497 244.082 127.5C247.715 127.351 251.048 126.518 254.082 125C253.875 124.897 253.666 124.785 253.457 124.666C253.659 124.765 253.859 124.863 254.06 124.963C265.464 117.885 273.131 107.885 277.06 94.9631C277.111 90.2766 278.111 85.9426 280.06 81.9631V78.9631C279.872 69.2112 278.872 59.5442 277.06 49.9631C270.529 28.4322 256.529 14.0983 235.061 6.96343C234.213 5.51984 232.887 4.69873 231.082 4.5C225.236 2.70691 219.283 1.54434 213.224 1.01236ZM233.147 131.965C233.125 131.976 233.104 131.988 233.082 132C227.714 136.37 223.067 141.343 219.14 146.917C224.966 143.578 230.106 139.259 234.56 133.963C235.077 132.673 234.607 132.007 233.147 131.965ZM217.063 148.002C214.606 148.27 212.279 148.936 210.084 149.999C211.719 152.407 213.711 152.562 216.06 150.463C216.802 149.801 217.137 148.981 217.063 148.002ZM210.07 149.978C210.067 149.973 210.063 149.968 210.06 149.963C209.099 148.198 208.765 146.198 209.06 143.963H211.06L230.022 125.999C230.042 126 230.062 126 230.082 126C231.467 124.886 232.967 123.886 234.582 123C228.276 130.639 221.11 137.806 213.082 144.5C212.145 145.192 211.479 145.025 211.082 144H209.082C208.788 146.226 209.118 148.219 210.07 149.978ZM186.981 5.49036C187.007 5.48134 187.033 5.47227 187.06 5.46313C185.007 5.27395 183.03 4.78329 181.127 3.99115C181.112 3.99411 181.097 3.99706 181.082 4C182.974 4.79464 184.94 5.29143 186.981 5.49036ZM101.657 216.919C101.458 216.933 101.259 216.948 101.06 216.963C65.6961 220.82 41.8631 239.485 29.5598 272.963C21.4114 299.249 24.0779 324.249 37.5598 347.963C56.2332 368.429 79.4002 380.595 107.06 384.463C124.364 385.804 141.697 386.304 159.06 385.963C166.895 384.435 174.895 383.102 183.06 381.963C189.258 379.729 195.592 377.563 202.06 375.463C239.409 359.62 261.742 331.787 269.06 291.963C255.196 289.033 242.196 283.867 230.06 276.463C211.716 264.959 193.716 252.959 176.06 240.463C164.756 232.977 152.759 226.812 140.067 221.966C140.072 221.977 140.077 221.988 140.082 222C127.454 217.65 114.454 215.983 101.082 217C101.274 216.972 101.465 216.946 101.657 216.919Z" fill="#439EFC"/>
<path d="M277.082 50C280.857 59.413 281.857 69.079 280.082 79C279.894 69.248 278.894 59.581 277.082 50Z" fill="#439EFC"/>
<path d="M154.082 411C140.399 411.145 126.732 410.812 113.082 410C120.856 411.531 128.856 412.198 137.082 412C142.925 411.999 148.592 411.666 154.082 411Z" fill="#439EFC"/>
<path d="M280.082 82C280.157 86.692 279.157 91.026 277.082 95C277.133 90.313 278.133 85.979 280.082 82Z" fill="#439EFC"/>
</svg>
